twotone/svg/motorcycle.svg

<svg xmlns="http://www.w3.org/2000/svg" width="24" height="24"><path fill="none" d="M0 0h24v24H0z"/><g fill="currentColor"><path opacity=".3" d="M9.7 12.31l.25.69h.77l2-2H8.98c.3.39.54.83.72 1.31z"/><path d="M19.44 9.03L15.41 5H11v2h3.59l2 2H5c-2.8 0-5 2.2-5 5s2.2 5 5 5c2.46 0 4.45-1.69 4.9-4h1.65l2.77-2.77c-.21.54-.32 1.14-.32 1.77 0 2.8 2.2 5 5 5s5-2.2 5-5c0-2.65-1.97-4.77-4.56-4.97zM7.82 15C7.4 16.15 6.28 17 5 17c-1.63 0-3-1.37-3-3s1.37-3 3-3c1.28 0 2.4.85 2.82 2H5v2h2.82zm2.9-2h-.77l-.25-.69c-.18-.48-.42-.92-.72-1.31h3.74l-2 2zM19 17c-1.66 0-3-1.34-3-3s1.34-3 3-3 3 1.34 3 3-1.34 3-3 3z"/></g></svg>

<?xml version="1.0" encoding="utf-8"?>
<!-- Generator: Adobe Illustrator 19.1.0, SVG Export Plug-In . SVG Version: 6.00 Build 0)  -->
<svg version="1.1" xmlns="http://www.w3.org/2000/svg" xmlns:xlink="http://www.w3.org/1999/xlink" x="0px" y="0px" width="24px"
	 height="24px" viewBox="0 0 24 24" enable-background="new 0 0 24 24" xml:space="preserve">
<g id="Bounding_Boxes">
	<g id="ui_x5F_spec_x5F_header_copy_3" display="none">
	</g>
	<rect fill="none" width="24" height="24"/>
</g>
<g id="Duotone" fill="currentColor">
	<g id="ui_x5F_spec_x5F_header_copy_2" display="none">
	</g>
	<g>
		<path opacity="0.3" d="M9.7,12.31L9.95,13h0.73h0.04l2-2H8.98C9.28,11.39,9.52,11.83,9.7,12.31z"/>
		<path d="M19.44,9.03L15.41,5H11v2h3.59l2,2H5c-2.8,0-5,2.2-5,5s2.2,5,5,5c2.46,0,4.45-1.69,4.9-4h1.65l2.77-2.77
			C14.11,12.77,14,13.37,14,14c0,2.8,2.2,5,5,5s5-2.2,5-5C24,11.35,22.03,9.23,19.44,9.03z M7.82,15C7.4,16.15,6.28,17,5,17
			c-1.63,0-3-1.37-3-3s1.37-3,3-3c1.28,0,2.4,0.85,2.82,2H5v2H7.82z M10.72,13h-0.04H9.95L9.7,12.31C9.52,11.83,9.28,11.39,8.98,11
			h3.74L10.72,13z M19,17c-1.66,0-3-1.34-3-3c0-1.66,1.34-3,3-3c1.66,0,3,1.34,3,3C22,15.66,20.66,17,19,17z"/>
	</g>
</g>
</svg>
